app/assets/img/call.svg

<svg width="40" height="40" viewBox="0 0 40 40" fill="none" xmlns="http://www.w3.org/2000/svg">
<g id="ic/call">
<rect id="back" width="40" height="40" rx="20" fill="#FF3E79"/>
<path id="icon" fill-rule="evenodd" clip-rule="evenodd" d="M12.7602 23.25L15.3002 22.96C15.9102 22.89 16.5102 23.1 16.9402 23.53L18.7802 25.37C21.6102 23.93 23.9302 21.62 25.3702 18.78L23.5202 16.93C23.0902 16.5 22.8802 15.9 22.9502 15.29L23.2402 12.77C23.3602 11.76 24.2102 11 25.2302 11H26.9602C28.0902 11 29.0302 11.94 28.9602 13.07C28.4302 21.61 21.6002 28.43 13.0702 28.96C11.9402 29.03 11.0002 28.09 11.0002 26.96V25.23C10.9902 24.22 11.7502 23.37 12.7602 23.25Z" fill="white"/>
</g>
</svg>

<svg width="40" height="40" fill="none" xmlns="http://www.w3.org/2000/svg"><rect width="40" height="40" rx="20" fill="#FF3E79"/><path fill-rule="evenodd" clip-rule="evenodd" d="m12.76 23.25 2.54-.29c.61-.07 1.21.14 1.64.57l1.84 1.84c2.83-1.44 5.15-3.75 6.59-6.59l-1.85-1.85a1.99 1.99 0 0 1-.57-1.64l.29-2.52c.12-1.01.97-1.77 1.99-1.77h1.73c1.13 0 2.07.94 2 2.07-.53 8.54-7.36 15.36-15.89 15.89-1.13.07-2.07-.87-2.07-2v-1.73c-.01-1.01.75-1.86 1.76-1.98Z" fill="#fff"/></svg>
